X: 13776
T: Fort Of The Daft Woman
R: reel
M: 4/4
K: Gmajor
BAGB c2Gc|BAGB AGED|BAGBc2dc|(3Bcd AF GFED|
BAGB cded|BcdB AGED|(3GGG GD EDB,D|1 DEDB, G,3 A:|2 DEDB, G,2ga||
bg (3ggg =fa (3aaa|eccB c2cc|df (3fff bagf|g2gf g2ga|
bg (3ggg =fa (3aaa|eccB c2cc|df (3fff bagf|g2gf g2ga|
bg (3ggg =fa (3aaa|eccB c2cc|df (3fff bagf|g2gf gedc|
BDGB cGGc|BAGB AGED|(3GGG GD EDB,D|DEDB, G,3A||

